frontend/public/svg/misc/bus.svg

<svg width="151" height="154" viewBox="0 0 151 154" fill="none" xmlns="http://www.w3.org/2000/svg">
<path d="M49.7215 133.204C49.7215 137.096 49.8665 140.486 49.69 143.86C49.3782 149.817 47.1545 152.347 41.216 153.212C37.8641 153.693 34.476 153.874 31.0919 153.752C25.7854 153.567 23.5277 151.288 23.4568 145.972C23.4062 141.275 23.6014 136.579 24.0416 131.902C24.2549 129.586 23.7791 128.088 21.8928 126.628C17.9213 123.551 16.409 119.119 16.0375 114.276C15.1101 102.192 14.1722 90.1086 13.4122 78.0136C13.277 75.8543 12.6423 75.3226 10.5617 75.2569C4.69011 75.0719 2.05626 72.7688 1.62308 66.995C0.946391 57.969 0.267743 48.9135 0.291371 39.8725C0.310405 32.7335 2.87142 30.3339 9.9113 29.5522C12.4605 29.2687 13.279 28.3406 13.2225 25.9115C13.2051 23.6156 13.351 21.3214 13.659 19.0462C14.7347 10.0951 20.8131 5.76258 28.6084 3.09719C37.8811 -0.0781683 47.5005 -0.00596602 57.1342 0.0340706C71.6668 0.09511 86.2001 -0.0479877 100.733 0.0176461C105.86 0.0406179 111.012 0.166682 116.108 0.689127C127.759 1.88366 133.734 7.87205 135.525 19.6973C136.155 23.8532 136.155 23.8532 140.176 24.226C144.687 24.6422 147.566 26.7785 148.041 31.1511C149.157 41.4497 150.306 51.7784 150.627 62.1197C150.883 70.3324 146.137 74.6899 137.889 75.276C134.221 75.5385 134.507 74.9478 134.295 79.2895C133.747 90.5129 133.369 101.76 132.256 112.931C131.647 119.047 129.414 124.831 123.634 128.439C122.969 128.854 122.78 130.484 122.841 131.524C123.051 135.331 123.655 139.127 123.741 142.934C123.862 148.25 121.883 150.448 116.634 151.386C114.485 151.77 112.323 152.087 110.16 152.388C104.249 153.21 100.662 150.53 100.036 144.551C99.7686 141.396 99.6854 138.228 99.7869 135.064C99.8079 133.462 99.6123 132.787 97.6742 132.814C82.4025 133.028 67.1288 133.095 51.8552 133.208C51.231 133.208 50.6036 133.204 49.7215 133.204ZM78.3745 10.3944V10.4476C68.7566 10.4476 59.1359 10.3202 49.5206 10.4889C42.0869 10.6202 34.7189 11.2109 27.7886 14.4971C24.2352 16.1833 22.767 18.7286 22.723 22.471C22.6889 25.4193 22.4605 28.3656 22.3732 31.3139C22.022 43.2041 20.798 55.0562 21.6309 66.9963C22.4736 79.088 22.7342 91.2198 23.315 103.331C23.487 106.926 23.8033 110.519 24.1886 114.094C24.6868 118.716 27.278 121.857 31.7194 122.992C36.2521 124.15 40.8918 125.368 45.5262 125.56C58.2978 126.085 71.1023 126.52 83.8714 126.168C93.8904 125.892 103.868 124.296 113.878 123.468C119.908 122.97 122.966 119.56 123.638 113.921C124.475 106.881 125.458 99.8092 125.523 92.7385C125.691 74.594 126.057 56.4818 127.381 38.3675C127.858 31.8409 126.566 25.1272 125.585 18.5737C125.01 14.7295 122.275 12.2033 118.286 11.5627C115.069 10.9568 111.812 10.5839 108.541 10.4469C98.4874 10.3031 88.429 10.3944 78.3733 10.3944H78.3745ZM135.108 66.2953C141.36 65.9842 142.172 65.2727 142.049 59.2069C141.875 50.7014 141.481 42.1998 141.24 33.695C141.188 31.8494 140.564 31.1471 138.642 31.5541C137.001 31.9013 136.349 32.5891 136.273 34.3763C136.002 40.6955 135.413 47.001 135.144 53.3202C134.959 57.6343 135.107 61.9681 135.107 66.2953H135.108ZM13.5573 34.4131C7.98888 35.2604 7.13432 35.7756 7.27806 39.5371C7.60623 48.139 8.27175 56.7285 8.7942 65.3233C8.90315 67.1118 9.57394 68.1317 11.6309 67.9795C13.7397 67.8226 13.3111 66.3432 13.3334 65.1238C13.4354 59.5593 13.5078 53.9942 13.5507 48.4285C13.5855 43.8715 13.5573 39.3139 13.5573 34.4131ZM30.5006 131.313C30.5006 135.536 30.4862 139.547 30.5085 143.558C30.5164 145.043 30.7257 146.757 32.7085 146.346C35.5498 145.755 39.1065 147.751 41.1602 144.162C41.2033 144.061 41.2233 143.952 41.2186 143.842C41.344 140.692 41.5658 137.542 41.5028 134.396C41.4903 133.8 40.4212 132.848 39.7117 132.707C36.7568 132.119 33.7521 131.78 30.5019 131.312L30.5006 131.313ZM106.077 132.199C106.391 135.223 106.591 138.036 106.995 140.821C107.586 144.879 107.647 144.875 111.776 144.182C113.111 143.958 114.877 144.262 114.914 142.153C114.975 138.575 114.93 134.994 114.93 131.043L106.077 132.199Z" fill="black"/>
<path d="M76.6585 73.5963C63.3414 73.173 50.0165 72.9039 36.7099 72.258C30.3788 71.9509 27.5277 69.277 26.8576 62.9755C25.6204 51.3255 25.5351 39.6177 27.3873 28.0189C27.9279 25.0103 29.143 22.1632 30.9414 19.6913C32.1352 18.0373 34.5682 16.7489 36.6455 16.3623C42.6353 15.2466 48.711 14.1668 54.7802 13.985C68.7556 13.565 82.75 13.5144 96.7319 13.6772C101.712 13.735 106.717 14.6348 111.643 15.5288C116.66 16.4391 119.391 19.8717 119.895 24.8487C120.478 30.6029 120.782 36.3852 121.2 42.1551C121.555 47.054 122.02 51.9496 122.205 56.8571C122.349 59.9035 122.219 62.9567 121.819 65.9802C121.276 69.7797 119.128 71.7415 115.326 72.2843C113.16 72.5559 110.978 72.6775 108.795 72.6485C98.0866 72.6833 87.3785 72.6643 76.671 72.6643C76.6671 72.975 76.6629 73.2857 76.6585 73.5963ZM76.3533 65.4538L76.348 65.7098C87.0442 65.3672 97.7403 65.0262 108.436 64.6871C113.876 64.5191 113.999 64.5316 113.796 58.9528C113.487 50.4453 113.009 41.9431 112.557 33.4415C112.441 31.2678 112.084 29.1098 111.953 26.9347C111.801 24.4176 110.45 23.2191 108.034 22.9966C103.474 22.5753 98.9143 21.7653 94.3554 21.7725C80.3793 21.7955 66.3954 21.9484 52.4318 22.44C47.5788 22.6107 42.7416 23.7993 37.953 24.7917C37.287 24.9487 36.6606 25.2419 36.1135 25.6528C35.5663 26.0638 35.1102 26.5835 34.7737 27.1794C33.8069 29.4379 32.8874 31.9661 32.9359 34.3644C33.1105 43.1993 33.6054 52.0316 34.1508 60.8548C34.3884 64.6944 34.8997 65.3455 38.6966 65.394C51.2464 65.5561 63.8002 65.4577 76.3533 65.4577V65.4538Z" fill="black"/>
<path d="M72.562 93.2697C67.1105 93.2697 61.6596 93.3084 56.2087 93.2572C52.3002 93.2198 50.2636 91.8749 50.3056 89.5272C50.3456 87.2898 51.9983 86.065 55.9856 85.9049C64.5895 85.5577 73.2006 85.4074 81.8079 85.1356C84.3092 85.0569 86.8045 84.755 89.3052 84.7182C90.5818 84.6998 92.1163 84.667 93.0785 85.3161C94.2048 86.0762 95.4328 87.5326 95.5128 88.7593C95.4822 89.4826 95.2892 90.1897 94.9484 90.8284C94.6076 91.4671 94.1276 92.0211 93.5438 92.4492C92.178 93.3117 90.2693 93.5762 88.5825 93.6195C83.2452 93.756 77.9026 93.67 72.562 93.67V93.2697Z" fill="black"/>
<path d="M73.0802 104.459C69.4789 104.459 65.8763 104.514 62.2763 104.438C60.1602 104.394 58.2372 103.703 58.0816 101.222C57.9202 98.6407 59.9292 97.794 61.9606 97.7041C69.3739 97.3759 76.7938 97.2256 84.2144 97.0582C84.9825 96.979 85.7549 97.16 86.4078 97.5721C87.4534 98.5074 88.9295 99.6836 88.9761 100.812C89.0227 101.941 87.7764 103.81 86.696 104.178C84.5957 104.893 82.223 104.876 79.9547 104.992C77.6687 105.108 75.3715 105.018 73.0796 105.018L73.0802 104.459Z" fill="black"/>
<path d="M114.485 98.1724C110.388 98.1809 106.878 94.9051 106.938 91.1259C106.991 87.6099 110.333 84.5107 114.128 84.4575C116.008 84.4637 117.809 85.2119 119.14 86.5394C120.471 87.8669 121.224 89.6662 121.234 91.5459C121.202 93.3143 120.476 94.9993 119.214 96.2384C117.952 97.4776 116.254 98.172 114.485 98.1724Z" fill="black"/>
<path d="M29.0388 93.0064C29.0422 92.1047 29.2334 91.2136 29.6004 90.3899C29.9673 89.5663 30.5019 88.8282 31.1701 88.2227C31.8382 87.6172 32.6252 87.1576 33.4809 86.8732C34.3365 86.5888 35.2421 86.4859 36.1397 86.571C40.0121 86.7967 43.2938 90.0581 43.0582 93.4422C42.8134 96.9148 38.9711 100.167 35.3134 99.999C33.5562 99.8978 31.9104 99.1058 30.7349 97.7958C29.5595 96.4859 28.9498 94.7642 29.0388 93.0064Z" fill="black"/>
</svg>

<svg xmlns="http://www.w3.org/2000/svg" width="151" height="154" fill="none" viewBox="0 0 151 154"><path fill="#000" d="M49.722 133.204c0 3.892.145 7.282-.032 10.656-.312 5.957-2.535 8.487-8.474 9.352-3.352.481-6.74.662-10.124.54-5.307-.185-7.564-2.464-7.635-7.78-.05-4.697.144-9.393.585-14.07.213-2.316-.263-3.814-2.15-5.274-3.97-3.077-5.483-7.509-5.854-12.352-.928-12.084-1.866-24.167-2.626-36.262-.135-2.16-.77-2.691-2.85-2.757-5.872-.185-8.506-2.488-8.939-8.262C.946 57.969.268 48.913.291 39.872c.02-7.139 2.58-9.538 9.62-10.32 2.55-.283 3.368-1.211 3.312-3.64a48.4 48.4 0 0 1 .436-6.866c1.076-8.95 7.154-13.283 14.95-15.949C37.88-.078 47.5-.006 57.133.034c14.534.061 29.067-.082 43.6-.016 5.127.023 10.279.149 15.375.671 11.651 1.195 17.626 7.183 19.417 19.008.63 4.156.63 4.156 4.651 4.529 4.511.416 7.39 2.553 7.865 6.925 1.116 10.299 2.265 20.627 2.586 30.969.256 8.212-4.49 12.57-12.738 13.156-3.668.263-3.382-.328-3.594 4.014-.548 11.223-.926 22.47-2.039 33.641-.609 6.116-2.842 11.9-8.622 15.508-.665.415-.854 2.045-.793 3.085.21 3.807.814 7.603.9 11.41.121 5.316-1.858 7.514-7.107 8.452-2.149.384-4.311.701-6.474 1.002-5.911.822-9.498-1.858-10.124-7.837a81 81 0 0 1-.25-9.487c.022-1.602-.174-2.277-2.112-2.25-15.272.214-30.545.281-45.819.394-.624 0-1.251-.004-2.133-.004m28.652-122.81v.054c-9.617 0-19.238-.128-28.853.04-7.434.132-14.802.723-21.732 4.01-3.554 1.685-5.022 4.23-5.066 7.973-.034 2.948-.262 5.895-.35 8.843-.351 11.89-1.575 23.742-.742 35.682.843 12.092 1.103 24.224 1.684 36.335.172 3.595.488 7.188.874 10.763.498 4.622 3.089 7.763 7.53 8.898 4.533 1.158 9.173 2.376 13.807 2.568 12.772.525 25.576.96 38.345.608 10.02-.276 19.997-1.872 30.007-2.7 6.03-.498 9.088-3.908 9.76-9.547.837-7.04 1.82-14.112 1.885-21.183.168-18.144.534-36.256 1.858-54.37.477-6.527-.815-13.24-1.796-19.794-.575-3.845-3.31-6.37-7.299-7.011a68 68 0 0 0-9.745-1.116c-10.054-.144-20.112-.053-30.168-.053zm56.734 55.901c6.252-.31 7.064-1.022 6.941-7.088-.174-8.506-.568-17.007-.809-25.512-.052-1.846-.676-2.548-2.598-2.14-1.641.346-2.293 1.034-2.369 2.821-.271 6.32-.86 12.625-1.129 18.944-.185 4.314-.037 8.648-.037 12.975zM13.558 34.413c-5.57.847-6.424 1.363-6.28 5.124.328 8.602.994 17.191 1.516 25.786.11 1.789.78 2.809 2.837 2.657 2.109-.157 1.68-1.637 1.702-2.856q.153-8.347.218-16.695c.034-4.558.006-9.115.006-14.016m16.943 96.9c0 4.223-.015 8.234.008 12.245.007 1.485.217 3.199 2.2 2.788 2.84-.591 6.397 1.405 8.451-2.184a.7.7 0 0 0 .059-.32c.125-3.15.347-6.3.284-9.446-.013-.596-1.082-1.548-1.791-1.689-2.955-.588-5.96-.927-9.21-1.395zm75.576.886c.314 3.024.514 5.837.918 8.622.591 4.058.652 4.054 4.781 3.361 1.335-.224 3.101.08 3.138-2.029.061-3.578.016-7.159.016-11.11z"/><path fill="#000" d="M76.659 73.596c-13.318-.423-26.643-.692-39.95-1.338-6.33-.307-9.181-2.981-9.851-9.282-1.238-11.65-1.323-23.358.53-34.957a20.24 20.24 0 0 1 3.553-8.328c1.194-1.654 3.627-2.942 5.704-3.329 5.99-1.115 12.066-2.195 18.135-2.377 13.976-.42 27.97-.47 41.952-.308 4.98.058 9.985.958 14.911 1.852 5.017.91 7.748 4.343 8.252 9.32.583 5.754.887 11.536 1.305 17.306.355 4.899.82 9.795 1.005 14.702.144 3.047.014 6.1-.386 9.123-.543 3.8-2.691 5.761-6.493 6.304a47 47 0 0 1-6.531.364c-10.708.035-21.416.016-32.124.016zm-.306-8.142-.005.256q16.044-.514 32.088-1.023c5.44-.168 5.563-.155 5.36-5.734-.309-8.508-.787-17.01-1.239-25.512-.116-2.173-.473-4.331-.604-6.506-.152-2.517-1.503-3.716-3.919-3.938-4.56-.422-9.12-1.232-13.679-1.224-13.976.023-27.96.175-41.923.667-4.853.17-9.69 1.36-14.479 2.352a4.96 4.96 0 0 0-3.18 2.387c-.966 2.259-1.886 4.787-1.837 7.185.175 8.835.67 17.668 1.215 26.49.237 3.84.749 4.492 4.546 4.54 12.55.162 25.103.064 37.656.064zM72.562 93.27c-5.451 0-10.902.038-16.353-.013-3.909-.037-5.945-1.382-5.903-3.73.04-2.237 1.692-3.462 5.68-3.622 8.604-.347 17.215-.498 25.822-.77 2.501-.078 4.996-.38 7.497-.417 1.277-.018 2.811-.051 3.773.598 1.127.76 2.355 2.217 2.435 3.443a4.83 4.83 0 0 1-1.97 3.69c-1.365.863-3.274 1.127-4.96 1.17-5.338.137-10.68.051-16.021.051zm.518 11.189c-3.601 0-7.204.055-10.804-.021-2.116-.044-4.039-.735-4.194-3.216-.162-2.581 1.847-3.428 3.879-3.518 7.413-.328 14.833-.478 22.253-.646a3.45 3.45 0 0 1 2.194.514c1.045.935 2.522 2.112 2.568 3.24s-1.2 2.998-2.28 3.366c-2.1.715-4.473.698-6.741.814-2.286.116-4.584.026-6.875.026zm41.405-6.287c-4.097.009-7.607-3.267-7.547-7.046.053-3.516 3.395-6.615 7.19-6.669a7.13 7.13 0 0 1 7.106 7.089 6.75 6.75 0 0 1-6.749 6.626m-85.446-5.166a6.49 6.49 0 0 1 7.1-6.435c3.873.226 7.155 3.487 6.92 6.871-.246 3.473-4.088 6.725-7.746 6.557a6.667 6.667 0 0 1-6.274-6.993"/></svg>
